X: 1
T: June Apple
C: Trad
R: Reel
G: American Old-Timey
M: 4/4
L: 1/8
K: Amix
Z: ABC transcription by Verge Roller
r: 32
|: eg | "A" a2 eg a2 eg | "A" a2 ed cBAf | "G" g2 ef g2 ef | "G" gfed cdeg |
"A" a2 eg a2 eg | "A" a2 edcB A2 | "G" G2 GA BAGB | "A" A4 A2 :|
|: ed | "A" c2 cB A2 AB | "A" c2 d2 e4 | "G" G2 GA B2 Bc | "G" d6 ed |
"A" c2 cB A2 AB | "A" c2 d2 e4 | "G" G2 GA BAGB | "A" A4 A2 :|
